assets/ai/ai-ciencia-vitae.svg

<svg xmlns="http://www.w3.org/2000/svg" width="100%" height="100%" viewBox="-43.52 -43.52 599.04 599.04"><path d="M 129.05843,134.9225 7.9999989,256.00002 129.05843,377.0775 167.14157,338.02149 86.111799,256.00002 168.11433,173.97852 Z m 252.89155,9.764 a 36.126828,36.126828 0 0 0 -36.11914,36.11921 36.126828,36.126828 0 0 0 36.11914,36.1383 36.126828,36.126828 0 0 0 36.13833,-36.1383 36.126828,36.126828 0 0 0 -36.13833,-36.11921 z M 300.92021,207.17997 262.8367,246.23603 382.92238,367.31349 504,246.23603 464.9441,207.17997 382.92238,289.20144 Z M 194.4884,218.88914 a 36.126828,36.126828 0 0 0 -36.13797,36.1383 36.126828,36.126828 0 0 0 36.13797,36.11917 36.126828,36.126828 0 0 0 36.11952,-36.11917 36.126828,36.126828 0 0 0 -36.11952,-36.1383 z"/></svg>

<svg xmlns="http://www.w3.org/2000/svg" width="100%" height="100%" viewBox="-43.52 -43.52 599.04 599.04"><path d="M129.058 134.923L8 256l121.058 121.077 38.084-39.056L86.112 256l82.002-82.021zm252.892 9.764a36.127 36.127 0 00-36.12 36.119 36.127 36.127 0 0036.12 36.138 36.127 36.127 0 0036.138-36.138 36.127 36.127 0 00-36.138-36.12zm-81.03 62.493l-38.083 39.056 120.085 121.077L504 246.236l-39.056-39.056-82.022 82.021zm-106.432 11.71a36.127 36.127 0 00-36.138 36.137 36.127 36.127 0 0036.138 36.12 36.127 36.127 0 0036.12-36.12 36.127 36.127 0 00-36.12-36.138z"/></svg>
